!!!!SEGMENT: pl-kk--kk-i-513--011_haser-august-ferdinand--miserere-cor-mundum-crea-in-me.krn
!!!cenid: 17xx:1851
!!!COM: Häser, August Ferdinand
!!!COM-rismID: pe37240
!!!CDT: 1779/10/15-1844/11/01
!!!CNT: German
!!!OPR: Miserere
!!!OTL: Cor mundum crea in me
!!!OMV: 011
!!!PDT:
!!!AGN: Sacred
!!!SMS-siglum: PL-Kk
!!!SMS-shelfmark: Kk.I.513
!!!SMS-shelfwork: 001-011 M
!!!SMS-variant:
!!!SMS-altvar:
!!!NIFC-rismSourceID: 1001138500
!!!NIFC-islandoraID: pl-kk:14834
!!!URL-pdf-islandora: https://repozytorium.nifc.pl/islandora/object/pl-kk%3A14834/datastream/PDF/view
!!!URL-scan: https://polish.musicsources.pl/pl/lokalizacje/galeria/rekopisy/6123 @EN{Scan on Polish Music Herritage in Open Access Website} @PL{Skany w portalu Dziedzictwo Muzyki Polskiej w otwartym dostępie}
!!!ONB-nifc:
!!!AIN: 1 alto 1 bass 1 empty 1 organ 1 soprn 1 tenor
!!!key:
**kern	**kern	**kern	**text	**kern	**text	**dynam	**kern	**text	**dynam	**kern	**text	**text	**dynam
*part6	*part5	*part4	*part4	*part3	*part3	*part3	*part2	*part2	*part2	*part1	*part1	*part1	*part1
*staff6	*staff5	*staff4	*staff4	*staff3	*staff3	*	*staff2	*staff2	*	*staff1	*staff1	*staff1	*
*Iempty	*Iorgan	*Ibass	*	*Itenor	*	*	*Ialto	*	*	*Isoprn	*	*	*
*	*I"[Organo]	*I"Basso.	*	*I"Tenore.	*	*	*I"Alto	*	*	*I"Soprano.	*	*	*
*	*I'[org]	*I'B	*	*I'T	*	*	*I'A	*	*	*I'S	*	*	*
*clefF4	*clefG2	*clefF4	*	*clefC4	*	*	*clefG2	*	*	*clefG2	*	*	*
*k[b-e-]	*k[b-e-]	*k[b-e-]	*	*k[b-e-]	*	*	*k[b-e-]	*	*	*k[b-e-]	*	*	*
*B-:	*B-:	*B-:	*	*B-:	*	*	*B-:	*	*	*B-:	*	*	*
*M4/4	*M4/4	*M4/4	*	*M4/4	*	*	*M4/4	*	*	*M4/4	*	*	*
*met(c)	*met(c)	*met(c)	*	*met(c)	*	*	*met(c)	*	*	*met(c)	*	*	*
=1	=1	=1	=1	=1	=1	=1	=1	=1	=1	=1	=1	=1	=1
*2\right	*2\right	*2\right	*	*2\right	*	*	*2\right	*	*	*2\right	*	*	*
!LO:TX:t=P:problem=all\right&colon; global	!LO:TX:t=P:problem=all\right&colon; global	!LO:TX:t=P:problem=all\right&colon; global	!	!LO:TX:t=P:problem=all\right&colon; global	!	!	!LO:TX:t=P:problem=all\right&colon; global	!	!	!LO:TX:t=P:problem=all\right&colon; global	!	!	!
!	!LO:TX:t=P:problem=w źródle brak oznaczenia tempa	!	!	!	!	!	!	!	!	!	!	!	!
!	!	!	!	!LO:TX:t=P:problem=w źródle kolejność znaków przykluczowych to B- E-	!	!	!	!	!	!	!	!	!
!	!	!	!	!	!	!	!LO:TX:a:Bi:t=No. 11.:problem='No. 11.' znajduje się przed kluczem i oznaczeniem metrum na pięciolinii	!	!	!LO:TX:a:Bi:t=No. 11.:problem='No. 11.' znajduje się przed kluczem i oznaczeniem metrum na pięciolinii	!	!	!
!	!LO:TX:a:Bi:t=No. 11.:problem='No. 11.' znajduje się przed kluczem i oznaczeniem metrum na pięciolinii	!LO:TX:a:Bi:t=No. 11.:problem='No. 11.' znajduje się przed kluczem i oznaczeniem metrum na pięciolinii	!	!LO:TX:a:Bi:t=N 11.:problem='N 11.' znajduje się przed kluczem i oznaczeniem metrum na pięciolinii	!	!	!	!	!	!	!	!	!
!	!	!LO:TX:a:Bi:t=Cantabile.:rj	!	!LO:TX:a:Bi:t=Cantabile.:rj	!	!	!LO:TX:b:Bi:t=Cantabile.:rj	!	!	!LO:TX:a:Bi:t=Cantabile:rj	!	!	!
!	!	!	!	!LO:TX:a:Bi:t=Soli	!	!	!LO:TX:a:Bi:t=Soli	!	!	!LO:TX:a:Bi:t=Soli.	!	!	!
!	!	!	!	!	!	!	!	!	!	!	!	!	!LO:DY:b:rj
2r	2r	2r	.	2r	.	.	2r	.	.	2r	.	.	f
2B- 2BB-\	2dd 2f/	2BB-/	Cor	2B-\	Cor	.	2f/	Cor	.	2dd\	Cor	.	.
=2	=2	=2	=2	=2	=2	=2	=2	=2	=2	=2	=2	=2	=2
*	*^	*	*	*	*	*	*	*	*	*	*	*	*
2A 2E-\	4.dd/	1f	2E-\	mun-	2A\	mun-	.	2f/	mun-	.	(>4.dd\	mun-	.	.
.	8cc/	.	.	.	.	.	.	.	.	.	8cc\)	.	.	.
2B- 2D\	2b-/	.	2D\	-dum	2B-\	-dum,	.	2f/	-dum	.	2b-/	-dum	.	.
=3	=3	=3	=3	=3	=3	=3	=3	=3	=3	=3	=3	=3	=3	=3
*^	*	*	*	*	*	*	*	*	*	*	*	*	*	*
4r	4ryy	2.b-/	4r	4r	.	4r	.	.	4r	.	.	2b-\	cre-	.	.
2d/	4B-\	.	2.f\	4B-\	cre-	4d\	cre-	.	4f/	cre-	.	.	.	.	.
.	4A-X\	.	.	4A-X\	-a	4d\	-a	.	4f/	-a	.	4b-\	-a	.	.
4B-/	4A-\	8cc/L	.	4A-\	in	4B-\	in	.	4f/	in	.	(>8cc\L	in	.	.
.	.	8dd/J	.	.	.	.	.	.	.	.	.	8dd\J)	.	.	.
*v	*v	*	*	*	*	*	*	*	*	*	*	*	*	*	*
=4	=4	=4	=4	=4	=4	=4	=4	=4	=4	=4	=4	=4	=4	=4
4B- 4G\	4ee- 4e-/	4ryy	4G\	me	4B-\	me	.	4e-/	me	.	4ee-\	me	.	.
2e-\	2gg/	2.b-\	4r	.	2e-\	De-	.	2b-\	De-	.	2gg\	De-	.	.
.	.	.	2r	.	.	.	.	.	.	.	.	.	.	.
4d\	4ff/	.	.	.	4d\	-us	.	4b-\	-us	.	4ff\	-us	.	.
=5	=5	=5	=5	=5	=5	=5	=5	=5	=5	=5	=5	=5	=5	=5
*^	*	*	*	*	*	*	*	*	*	*	*	*	*	*
1c	2r	2.ff/	2g\	2r	.	1c	De-	.	2g/	De-	.	(>2.ff\	De-	.	.
.	2F\	.	2a\	2F\	De-	.	.	.	2a/	.	.	.	.	.	.
.	.	4ee-/	.	.	.	.	.	.	.	.	.	4ee-\)	.	.	.
!	!	!	!	!	!	!	!	!	!	!	!	!LO:LB:g=original	!	!	!
*v	*v	*	*	*	*	*	*	*	*	*	*	*	*	*	*
*	*v	*v	*	*	*	*	*	*	*	*	*	*	*	*
=6	=6	=6	=6	=6	=6	=6	=6	=6	=6	=6	=6	=6	=6
1B- 1BB-	1dd 1f	4BB-/	-us	4B-\	-us	.	4f/	-us	.	4dd\	-us	.	.
!	!	!	!	!	!	!	!LO:SIC:l:s=et:v	!	!	!	!	!	!
.	.	4BB-/	et	4B-\	et	.	4f/	e	.	4dd\	et	.	.
.	.	4BB-/	ſpi-	4B-\	ſpi-	.	4f/	spi-	.	4dd\	ſpi-	.	.
.	.	8BB-/	-ri-	8B-\	-ri-	.	8f/	-ri-	.	8dd\	-ri-	.	.
.	.	8BB-/	-tum	8B-\	-tum	.	8f/	-tum	.	8dd\	-tum	.	.
!	!	!LO:LB:g=original	!	!	!	!	!LO:LB:g=original	!	!	!	!	!	!
=7	=7	=7	=7	=7	=7	=7	=7	=7	=7	=7	=7	=7	=7
*	*^	*	*	*	*	*	*	*	*	*	*	*	*
2A 2E-\	4.dd/	1f	2E-\	re-	2A\	re-	.	2f/	re-	.	(>4.dd\	re-	.	.
.	8cc/	.	.	.	.	.	.	.	.	.	8cc\)	.	.	.
2B- 2D\	2b-/	.	2D\	-ctum	2B-\	-ctum	.	2f/	-ctum	.	2b-\	-ctum	.	.
!	!	!	!	!	!LO:LB:g=original	!	!	!	!	!	!	!	!	!
=8	=8	=8	=8	=8	=8	=8	=8	=8	=8	=8	=8	=8	=8	=8
*^	*	*	*	*	*	*	*	*	*	*	*	*	*	*
2d/	2B-\	2.b-/	2.f\	8B-\	in-	4d\	in-	.	4f/	in-	.	4b-\	in-	.	.
.	.	.	.	8B-\	-no-	.	.	.	.	.	.	.	.	.	.
.	.	.	.	4B-\	-va	8d\	-no-	.	8f/	-no-	.	8b-\	-no-	.	.
.	.	.	.	.	.	8d\	-va	.	8f/	-va	.	8b-\	-va	.	.
4d/	2A-X\	.	.	4A-X\	in	4d\	in	.	4f/	in	.	4b-\	in	.	.
4f/	.	8cc/L	4b-\	4A-\	vis-	4f\	vis-	.	4b-/	vis-	.	(>8cc\L	vis-	.	.
.	.	8dd/J	.	.	.	.	.	.	.	.	.	8dd\J)	.	.	.
!LO:LB:g=original	!	!LO:LB:g=original	!	!	!	!	!	!	!	!	!	!	!	!	!
*v	*v	*	*	*	*	*	*	*	*	*	*	*	*	*	*
=9	=9	=9	=9	=9	=9	=9	=9	=9	=9	=9	=9	=9	=9	=9
4.e- 4.G\	4.ee-/	1b-	4.G\	-ce-	4.e-\	-ce-	.	4.b-/	-ce-	.	4.ee-\	-ce-	.	.
8d 8F\	8ff/	.	8F\	-ri-	8d\	-ri-	.	8b-/	-ri-	.	8ff\	-ri-	.	.
2d-X 2En\	2gg/	.	2En\	-bus	2d-X\	-bus	.	2b-/	-bus	.	2gg\	-bus	.	.
=10	=10	=10	=10	=10	=10	=10	=10	=10	=10	=10	=10	=10	=10	=10
*^	*	*	*	*	*	*	*	*	*	*	*	*	*	*
4r	1F	2.cc/	4b-\	1F	me-	2r	.	.	4b-/	me-	.	(>2.cc\	me-	.	.
!	!	!	!	!	!	!	!	!	!LO:SIC:s=8a:v	!	!	!	!	!	!
4r	.	.	8a\L	.	.	.	.	.	8b-/L	.	.	.	.	.	.
.	.	.	8g\J	.	.	.	.	.	8g/J	.	.	.	.	.	.
!	!	!	!	!	!	!	!	!LO:DY:b:rj	!	!	!	!	!	!	!
2f/	.	.	2a\	.	.	2f\	me-	pp	2a/	.	.	.	.	.	.
.	.	4ff/	.	.	.	.	.	.	.	.	.	4ff\)	.	.	.
!	!	!	!	!	!	!	!	!	!	!	!	!LO:LB:g=original	!	!	!
=11	=11	=11	=11	=11	=11	=11	=11	=11	=11	=11	=11	=11	=11	=11	=11
!	!	!	!	!	!	!	!	!	!LO:TX:a:Bi:t=tutti	!	!	!	!	!	!
2B-/	4BB-\	2dd/	1f	4BB-/	-is	4f\	-is	.	4b-/	-is	.	4dd\	-is,	.	.
.	4r	.	.	4r	.	4B-\	cor	.	4f/	cor	.	4dd\	cor	.	.
4c/	2r	4ee-/	.	2r	.	4c\	mun-	.	4f/	mun-	.	4ee-\	mun-	.	.
4e-/	.	4a/	.	.	.	4e-\	-dum	.	4f/	-dum	.	4a/	-dum	.	.
=12	=12	=12	=12	=12	=12	=12	=12	=12	=12	=12	=12	=12	=12	=12	=12
!	!	!	!	!LO:TX:a:Bi:t=1	!	!	!	!	!	!	!	!	!	!	!
4d/	1r	4b-/	1f	1r	.	4d\	cre-	.	4f/	cre-	.	4b-\	cre-	.	.
4B-/	.	4dd/	.	.	.	4B-\	-a	.	4f/	-a	.	4dd\	-a	.	.
!	!	!	!	!	!	!	!	!	!LO:LB:g=original	!	!	!	!	!	!
4c/	.	4ee-/	.	.	.	4c\	cre-	.	4f/	cre-	.	4ee-\	cre-	.	.
4e-/	.	4a/	.	.	.	8e-\	-a	.	8f/	-a	.	8a/	-a	.	.
.	.	.	.	.	.	8e-\	in	.	8f/	in	.	8a/	in	.	.
!	!	!	!	!LO:LB:g=original	!	!	!	!	!	!	!	!	!	!	!
=13	=13	=13	=13	=13	=13	=13	=13	=13	=13	=13	=13	=13	=13	=13	=13
4d/	4r	4b-/	4f\	4r	.	4d\	me	.	4f/	me	.	4b-\	me,	.	.
4c 4C\	4ryy	4ee-/	2.g\	4C/	cor	4c\	cor	.	4g/	cor	.	4ee-\	cor	.	.
4Bn 4D\	2ryy	4ff/	.	4D/	mun-	4Bn\	mun-	.	4g/	mun-	.	4ff\	mun-	.	.
4d 4F\	.	4bn/	.	4F\	-dum	8d\	-dum	.	4g/	-dum	.	4bn\	-dum	.	.
.	.	.	.	.	.	8d\	.	.	.	.	.	.	.	.	.
!	!	!	!	!	!	!LO:LB:g=original	!	!	!	!	!	!	!	!	!
=14	=14	=14	=14	=14	=14	=14	=14	=14	=14	=14	=14	=14	=14	=14	=14
2c/	4E-\	4cc/	1g	4E-/	cre-	4c\	cor	.	4g/	cre-	.	4cc\	cre-	[[in-	.
.	4C\	4ee-/	.	4C/	-a	4c\	mun-	.	4g/	-a	.	4ee-\	-a	-no-	.
4Bn 4D/	2ryy	4ff/	.	4D\	cre-	4Bn\	-dum	.	8g/	cre-	.	4ff\	cre-	-va	.
.	.	.	.	.	.	.	.	.	8g/	-a	.	.	.	.	.
4d 4F/	.	4bn/	.	8F\	-a	8d\	cre-	.	4g/	in	.	8bn\	-a	in	.
.	.	.	.	8F\	in	8d\	-a	.	.	.	.	8b\	in	vis]]	.
=15	=15	=15	=15	=15	=15	=15	=15	=15	=15	=15	=15	=15	=15	=15	=15
!	!	!	!	!	!	!	!	!	!	!	!LO:DY:a:rj	!	!	!	!
2c/	4E-\	4cc/	1g	4E-\	me	4c\	in	.	4g/	me	p	4cc\	me	.	.
.	4r	2.ee-/	.	4r	.	4c\	me	.	4g/	et	.	4ee-\	et	.	.
4r	2ryy	.	.	4r	.	[>2c\	et	.	[2g/	ſpi-	.	[>2ee-\	ſpi-	.	.
4C/	.	.	.	4C/	et	.	.	.	.	.	.	.	.	.	.
!LO:PB:g=original	!	!LO:PB:g=original	!	!	!	!	!	!	!	!	!	!LO:LB:g=original	!	!	!
=16	=16	=16	=16	=16	=16	=16	=16	=16	=16	=16	=16	=16	=16	=16	=16
1c	4r	1ee-	2g\	4c\	ſpi-	4c\]	.	.	4g/]	.	.	4ee-\]	.	.	.
.	4B-\	.	.	8B-\	-ri-	8c\	ſpi-	.	8g/	-ri-	.	8ee-\	-ri-	.	.
.	.	.	.	8B-\	-tum	8c\	-ri-	.	8g/	-tum	.	8ee-\	-tum	.	.
.	4A\	.	4f#X\	4A\	ſpi-	4c\	-tum	.	4f#X/	spi-	.	4ee-\	ſpi-	.	.
.	4G\	.	4g\	8G\	-ri-	8c\	ſpi-	.	8g/	-ri-	.	8ee-\	-ri-	.	.
.	.	.	.	8G\	-tum	8c\	-ri-	.	8g/	-tum	.	8ee-\	-tum	.	.
!	!	!	!	!	!	!	!	!	!LO:LB:g=original	!	!	!	!	!	!
*v	*v	*	*	*	*	*	*	*	*	*	*	*	*	*	*
*	*v	*v	*	*	*	*	*	*	*	*	*	*	*	*
=17	=17	=17	=17	=17	=17	=17	=17	=17	=17	=17	=17	=17	=17
!	!	!	!	!	!	!	!	!	!LO:DY:a:rj	!	!	!	!
2c 2F#X\	2ee- 2a/	2F#X\	re-	2c\	-tum	.	2a/	re-	mf	2ee-\	re-	.	.
!	!	!	!	!LO:TX:a:t=P:problem=w źródle bemol dopisany ołówkiem	!	!	!	!	!	!	!	!	!
2G\	2dd 2b-/	2G\	-ctum	2B-\	re-	.	2b-/	-ctum	.	2dd\	-ctum	.	.
!	!	!LO:LB:g=original	!	!	!	!	!	!	!	!	!	!	!
=18	=18	=18	=18	=18	=18	=18	=18	=18	=18	=18	=18	=18	=18
*^	*^	*	*	*	*	*	*	*	*	*	*	*	*
!	!	!	!	!LO:TX:t=P:problem:problem=w źródle jeden dźwięk skreślony [poprawka skryptora]	!	!LO:TX:a:t=P:problem=w źródle forte dopisane ołówkiem	!	!	!	!	!	!	!	!	!
!	!	!	!	!	!	!	!	!	!	!	!LO:DY:a:rj	!	!	!	!
2c/	2E-\	2cc/	1g	4E-\	in-	4c\	-ctum	.	4g/	in-	f	4cc\	in-	.	.
.	.	.	.	8E-\	-no-	8c\	in-	.	8g/	-no-	.	8cc\	-no-	.	.
.	.	.	.	8E-\	-va	8c\	-no-	.	8g/	-va	.	8cc\	-va	.	.
4Bn/	4D\	4dd/	.	4D/	in	4Bn\	-va	.	4g/	in	.	4dd\	in	.	.
4c/	4C\	4ee-/	.	4C/	vis-	8c\	in	.	4g/	vis-	.	4ee-\	vis-	.	.
.	.	.	.	.	.	8c\	vis-	.	.	.	.	.	.	.	.
!	!	!	!	!	!	!LO:LB:g=original	!	!	!	!	!	!	!	!	!
*v	*v	*	*	*	*	*	*	*	*	*	*	*	*	*	*
*	*v	*v	*	*	*	*	*	*	*	*	*	*	*	*
=19	=19	=19	=19	=19	=19	=19	=19	=19	=19	=19	=19	=19	=19
2c 2F\	2a 2f/	(>2F\	-ce-	2c\	-ce-	.	4.f/	-ce-	.	2a/	-ce-	.	.
.	.	.	.	.	.	.	8f/	-ri-	.	.	.	.	.
2d-X 2En\	2b- 2g/	8En\)	.	4d-X\	-ri-	.	2g/	-bus	.	4b-/	-ri-	.	.
.	.	8E\	-ri-	.	.	.	.	.	.	.	.	.	.
.	.	4E\	-bus	4d-\	-bus	.	.	.	.	4b-/	-bus	.	.
=20	=20	=20	=20	=20	=20	=20	=20	=20	=20	=20	=20	=20	=20
*	*^	*	*	*	*	*	*	*	*	*	*	*	*
1c 1F	2b-/	2.f\	1F	me-	1c	me-	.	2.f/	me-	.	(<2b-/	me-	.	.
.	2a/	.	.	.	.	.	.	.	.	.	2a/)	.	.	.
.	.	4e-\	.	.	.	.	.	4e-/	.	.	.	.	.	.
*	*v	*v	*	*	*	*	*	*	*	*	*	*	*	*
=21	=21	=21	=21	=21	=21	=21	=21	=21	=21	=21	=21	=21	=21
!	!	!	!	!LO:TX:a:t=P:problem=w źródle bemol dopisany ołówkiem	!	!	!	!	!	!	!	!	!
2F 2BB-\	2b- 2d/	2BB-/	-is.	2B-\	-is.	.	2d/	-is.	.	2b-/	-is.	.	.
!	!	!LO:N:vis=1	!	!LO:N:vis=1	!	!	!	!	!	!	!	!	!
2r	2r	2rBB	.	2rF	.	.	2rg	.	.	2r	.	.	.
==	==	==	==	==	==	==	==	==	==	==	==	==	==
*-	*-	*-	*-	*-	*-	*-	*-	*-	*-	*-	*-	*-	*-
!!!system-decoration: [(s1,s2,s3,s4)][(s5,s6)]
!!!RDF**kern: > = above
!!!RDF**kern: < = below
!!!EED: Wojciech Jakubiak-Danek
!!!EEV: 2021-01-03
!!!ENC: Andrzej Kubiczek
!!!END: 2021-01-01
